Obsidian-SemiLight/actions/16s/snap-nodes-rotation-center.svg

<svg viewBox="0 0 16 16" xmlns="http://www.w3.org/2000/svg"><path d="m8.078125 1.671875-.7070312.7070312 1.6210937 1.6210938h-4.0859375v1h4.0859375l-1.6210937 1.6210938.7070312.7070312 2.828125-2.828125-1.8789062-1.8789062zm-4.671875 3.328125c-.276 0-.5.224-.5.5s.224.5.5.5.5-.224.5-.5-.224-.5-.5-.5zm-1 3c-.276 0-.5.224-.5.5s.224.5.5.5.5-.224.5-.5-.224-.5-.5-.5zm1 3c-.276 0-.5.224-.5.5s.224.5.5.5.5-.224.5-.5-.224-.5-.5-.5zm3 1c-.276 0-.5.224-.5.5s.224.5.5.5.5-.224.5-.5-.224-.5-.5-.5z" fill="#4d4d4d"/><path d="m10 8a2 2 0 0 0 -2 2 2 2 0 0 0 2 2 2 2 0 0 0 2-2 2 2 0 0 0 -2-2m0 1a1 1 0 0 1 1 1 1 1 0 0 1 -1 1 1 1 0 0 1 -1-1 1 1 0 0 1 1-1" fill="#3daee9"/></svg>

<svg xmlns="http://www.w3.org/2000/svg" viewBox="0 0 16 16">
  <defs id="defs3051">
    <style type="text/css" id="current-color-scheme">
      .ColorScheme-Text {
        color:#4d4d4d;
      }
      .ColorScheme-Highlight {
        color:#3daee9;
      }
      </style>
  </defs>
  <path 
        style="fill:currentColor;fill-opacity:1;stroke:none"
        d="M 8.078125 1.671875 L 7.3710938 2.3789062 L 8.9921875 4 L 4.90625 4 L 4.90625 5 L 8.9921875 5 L 7.3710938 6.6210938 L 8.078125 7.328125 L 10.90625 4.5 L 9.0273438 2.6210938 L 8.078125 1.671875 z M 3.40625 5 C 3.13025 5 2.90625 5.224 2.90625 5.5 C 2.90625 5.776 3.13025 6 3.40625 6 C 3.68225 6 3.90625 5.776 3.90625 5.5 C 3.90625 5.224 3.68225 5 3.40625 5 z M 2.40625 8 C 2.13025 8 1.90625 8.224 1.90625 8.5 C 1.90625 8.776 2.13025 9 2.40625 9 C 2.68225 9 2.90625 8.776 2.90625 8.5 C 2.90625 8.224 2.68225 8 2.40625 8 z M 3.40625 11 C 3.13025 11 2.90625 11.224 2.90625 11.5 C 2.90625 11.776 3.13025 12 3.40625 12 C 3.68225 12 3.90625 11.776 3.90625 11.5 C 3.90625 11.224 3.68225 11 3.40625 11 z M 6.40625 12 C 6.13025 12 5.90625 12.224 5.90625 12.5 C 5.90625 12.776 6.13025 13 6.40625 13 C 6.68225 13 6.90625 12.776 6.90625 12.5 C 6.90625 12.224 6.68225 12 6.40625 12 z "
        class="ColorScheme-Text"
        />
  <path
        style="fill:currentColor;fill-opacity:1;stroke:none"
        d="m 10,8 a 2,2 0 0 0 -2,2 2,2 0 0 0 2,2 2,2 0 0 0 2,-2 2,2 0 0 0 -2,-2 m 0,1 a 1,1 0 0 1 1,1 1,1 0 0 1 -1,1 1,1 0 0 1 -1,-1 1,1 0 0 1 1,-1"
        class="ColorScheme-Highlight"
      />
</svg>
